T: John MacColl's March To Kilbowie Cottage
M: 4/4
L: 1/8
K: Amix
|: A3/2B/ |c4 c>B A>c | e4 f>e c<e | A>B c<f e>c A>B | c<f e>c B2 A>B |c4 c>B A>c | e4 f>e c<e | f>e f>c e>A B<c | A4 A2 :||| g2|a2-a>f e>c B<c | A>c e>g f>A e>c | a>f e<f A2 A>B | c<f e>c B2g2 ||a2-a>f e>c B<c | A>c e>g f>A e>c | e<a c<e e>A B<c | A4 A2g2 ||a2-a>f e>c B<c | A>c e>g f>A e>c | a>f e<f A2 A>B | c<f e>c B2A>B ||c4 c>B A>c | e4 f>e c<e | f>e f>c e>A B<c | A4 A2 |||: c3/2B/ |A>c B<c A>f e<f | a>e f<a e>f c<e | A>c B<c A>f e<f | a>f e>c B2 c>B |A>c B<c A>f e<f | a>e f<a e>f c<e | f>e f>c e>A B<c |A4 A2 :|||e3/2d/ |c<e B>c A>c e>A | c<e a>e f>e c>d | e>c B<c A2 A>B | c<f e>c B2 e>d|c<e B>c A>c e>A | c<e a>e f>e c>d | e>f c<e e>A B<c | A4 A2 e>d ||c<e B>c A>c e>A | c<e a>e f>e c>d | e>c B<c A2 A>B | c<f e>c B2 A>B ||c4 c>B A>c | e4 f>e c<e | f>e f>c e>A B<c | A4 A2 ||
